!!!!SEGMENT: pl-wn--mus-8170--003_zelenski-wladyslaw--koledy-w-zlobie-lezy.krn
!!!cenid: 18xx:3665
!!!COM: Żeleński, Władysław
!!!COM-rismID: pe41024455
!!!CDT: 1837/07/06-1921/01/23
!!!CNT: Polish
!!!OTL: Kolędy
!!!PDT:
!!!AGN:
!!!SMS-siglum: PL-Wn
!!!SMS-shelfmark: Mus.8170
!!!SMS-shelfwork: 003 W
!!!SMS-variant:
!!!SMS-altvar:
!!!NIFC-rismSourceID:
!!!NIFC-islandoraID:
!!!URL-pdf-islandora:
!!!URL-scan: https://polona.pl/item/koledy-w-ukladzie-na-chor-mieszany,NDU5Mzc1NDg/0 @EN{Scan on Polona} @PL{Skany w portalu Polona}
!!!ONB-nifc:
!!!AIN: 2 empty
!!!key: A-
**kern	**kern	**text
*part2	*part1	*part1
*staff2	*staff1	*staff1
*ICvox	*ICvox	*
*IGcoro	*IGcoro	*
*Iempty	*Iempty	*
*I"	*I"	*
*I'	*I'	*
*>[A,B,B]	*>[A,B,B]	*
*clefF4	*clefG2	*
*k[b-e-a-d-]	*k[b-e-a-d-]	*
*A-:	*A-:	*
*M3/4	*M3/4	*
=1	=1	=1
*>A	*>A	*
*^	*^	*
*xywh-#3:316,2048,2677,293	*xywh-#3:316,2048,2677,293	*xywh-#3:64,1452,3012,662	*xywh-#3:64,1452,3012,662	*
8c/	8A-\	8e-/	8e-\	W żło-
8c/	8A-\	8e-/	8e-\	-bie
!LO:N:vis=8	!LO:N:vis=8	!	!	!
4c/	4A-\	4a-/	4e-\	le-
4A-/	4A-\	4cc/	4e-\	-ży
=2	=2	=2	=2	=2
8G/	8E-\	8b-/	8e-\	Któż
8F/	8E-\	8a-/	8e-\	po-
8G/L	4E-\	8b-/L	4e-\	-bie-
8A-/J	.	8cc/J	.	.
4B-/	4E-\	4dd-/	4g\	-ży
=3	=3	=3	=3	=3
8A-/	8AA-\	8cc/	8a-\	Ko-
8A-/	8BB-\	8dd-/	8a-\	-lę-
4A-/	4C\	4ee-/	8a-\L	-do-
.	.	.	8g\J	.
4A-/	4D-\	4dd-/	4f\	wać
=4	=4	=4	=4	=4
8G/	8E-\	8cc/	8e-\	ma-
8G/	8E-\	8b-/	8d-\	-łe-
2A-/	2AA-\	2a-/	2c\	-mu!
!!LO:LB:g=original
=5	=5	=5	=5	=5
*xywh-#3:232,2606,2727,323	*xywh-#3:232,2606,2727,323	*xywh-#3:257,2338,2647,360	*xywh-#3:257,2338,2647,360	*
8E-/	8E-\	8e-/	8e-\	Je-
8E-/	8E-\	8e-/	8e-\	-zu-
4A-/	4C\	4a-/	4e-\	-so-
4A-/	4AA-\	4cc/	4e-\	-wi
=6	=6	=6	=6	=6
8G/	8E-\	8b-/	8e-\	Chry-
8F/	8E-\	8a-/	8e-\	-stu-
4G/	8D-\L	8b-/L	4e-\	-so-
.	8C\J	8cc/J	.	.
4G/	4BB-\	4dd-/	4e-\	-wi
=7	=7	=7	=7	=7
8A-/	8AA-\	8cc/	8e-\	Dziś
8A-/	8BB-\	8dd-/	8e-\	nam
4A-/	4C\	4ee-/	4e-\	na-
4A-/	4D-\	4dd-/	4f\	-ro-
=8	=8	=8	=8	=8
8G/	8E-\	8cc/	8e-\	-dzo-
8F/	8E-\	8b-/	8d-\	-ne-
2A-/	2AA-\	2a-/	2c\	-mu
=9!|:	=9!|:	=9!|:	=9!|:	=9!|:
*>B	*>B	*>B	*>B	*
4.e-/	4.A-\	4.ee-/	4.cc\	Pas-
8e-/	8A-\	8dd-/	8b-\	-tusz-
8e-/	8A-\	8cc/	8a-\	-Ko-
8e-/	8G-X\	8cc/	8a-\	-wie
!!LO:LB:g=original
=10	=10	=10	=10	=10
*xywh-#3:203,3177,2723,318	*xywh-#3:203,3177,2723,318	*xywh-#3:190,2917,2744,365	*xywh-#3:190,2917,2744,365	*
8c/	8F\	8ff/	8an\	przy-
8c/	8F\	8ee-/	8a\	-by-
8f/L	4F\	8dd-/L	4a\	-waj-
8e-/J	.	8cc/J	.	.
4d-/	4B-\	4dd-/	4b-\	-cię
=11	=11	=11	=11	=11
4.B-/	4.B-\	4.dd-/	4.f\	Je-
8c/	8A-\	8cc/	8f\	-mu
8d-/	8G\	8b-/	8g\	wdzię-
8d-/	8F\	8b-/	8a-\	-cznie
=12	=12	=12	=12	=12
8c/	8E-\	8ee-/	8g\	przy-
8B-/	8E-\	8dd-/	8g\	-gry-
8e-/L	4G\	8cc/L	4g\	-waj-
8d-/J	.	8b-/J	.	.
4c/	4A-\	4cc/	4a-\	-cie
=13	=13	=13	=13	=13
8c/	8F\	8a-/	8a-\	ja-
8B-/	8C\	8g/	8e-\	-Ko
4A-/	4D-\	4f/	4f\	Pa-
4A-/	4BB-\	4dd-/	4f\	-nu
=14	=14	=14	=14	=14
8G/	8E-\	8cc/	8e-\	na-
8G/	8E-\	8b-/	8d-\	-sze-
!LO:TX:b:t=Kolędy przepisane z rękopisu autora (w bibliotece Krakowskiego Towarzystwa\nMuzycznego. - Drukiem nieogłoszone.	!	!	!	!
2A-/	2AA-\	2a-/	2c\	-mu!
*v	*v	*	*	*
*	*v	*v	*
==	==	==
*-	*-	*-
!!!system-decoration: [(s1,s2)]
!!!ENC: Filip Voros
!!!END: 2022-02-17
!!!EED: Andrzej Borzym
!!!EEV: 2022-02-19
!!!IIIF: https://polona.pl/iiif/item/NDU5Mzc1NDg/manifest.json
!!!ENC-iiif: Jan Barakat
!!!END-iiif: 2022-08-30
!!!YEC: Copyright 2022 Narodowy Instytut Fryderyka Chopina (https://polishscores.org)
!!!YEM: Licence CC BY 4.0 (https://creativecommons.org/licenses/by/4.0)
